assets/ios/swift/Icons.xcassets/volumeOff.imageset/volumeOff.svg

<svg width="24" height="24" viewBox="0 0 24 24" fill="none" xmlns="http://www.w3.org/2000/svg">
<path d="M3.50008 3.49993L7.50002 7.49988L7.50296 7.49695L8.91717 8.91116L8.91423 8.91409L10.0001 9.99992V9.99405L12.0001 11.9941V11.9999L14.1216 14.1211L14.1243 14.1183L15.5385 15.5325L15.5356 15.5355L16.9499 16.9495L16.9527 16.9467L18.3669 18.3609L18.364 18.3639L20.5001 20.5C20.8906 20.8905 20.8906 21.5236 20.5001 21.9142C20.1096 22.3047 19.4764 22.3047 19.0859 21.9142L12.0001 14.8284V18.5856C12.0001 19.4765 10.9229 19.9227 10.293 19.2927L7.00006 15.9998H5.00006C3.89549 15.9998 3.00006 15.1044 3.00006 13.9998V9.99984C3.00006 8.89527 3.89549 7.99984 5.00006 7.99984H5.17156L2.08586 4.91414C1.69534 4.52361 1.69534 3.89045 2.08586 3.49992C2.47639 3.1094 3.10955 3.1094 3.50008 3.49993ZM7.17155 9.99984H5.00006V13.9998H7.82849L10.0001 16.1714V12.8284L7.17155 9.99984Z" fill="black"/>
<path d="M14.996 12.1616L16.6572 13.8228C16.8786 13.2579 17.0003 12.6428 17.0003 11.9998C17.0003 10.6193 16.4395 9.36797 15.5358 8.46425C15.1453 8.07372 14.5121 8.07372 14.1216 8.46424C13.7311 8.85476 13.7311 9.48792 14.1216 9.87845C14.6656 10.4224 15.0003 11.1711 15.0003 11.9998C15.0003 12.054 14.9988 12.108 14.996 12.1616Z" fill="black"/>
<path d="M18.1609 15.3265L19.6221 16.7877C20.4947 15.4011 21.0001 13.759 21.0001 11.9998C21.0001 9.5148 19.9917 7.26346 18.3642 5.63588C17.9736 5.24535 17.3405 5.24534 16.9499 5.63587C16.5594 6.02639 16.5594 6.65955 16.9499 7.05008C18.2177 8.31792 19.0001 10.0665 19.0001 11.9998C19.0001 13.2042 18.6965 14.337 18.1609 15.3265Z" fill="black"/>
<path d="M8.91717 6.08273L12.0001 9.16563V5.41405C12.0001 4.52315 10.9229 4.07698 10.293 4.70695L8.91717 6.08273Z" fill="black"/>
</svg>

<svg xmlns="http://www.w3.org/2000/svg" width="24" height="24" fill="black" viewBox="0 0 24 24">
  <path d="m3.5 3.5 4 4 .003-.003L8.917 8.91l-.003.003L10 10v-.006l2 2V12l2.122 2.121.002-.003 1.415 1.415-.003.003 1.414 1.414.003-.003 1.414 1.414-.003.003L20.5 20.5a1 1 0 0 1-1.414 1.414L12 14.828v3.758c0 .89-1.077 1.337-1.707.707L7 16H5a2 2 0 0 1-2-2v-4a2 2 0 0 1 2-2h.172L2.086 4.914A1 1 0 0 1 3.5 3.5ZM7.172 10H5v4h2.828L10 16.17v-3.343L7.172 10Zm7.824 2.162 1.661 1.66c.222-.564.343-1.18.343-1.822 0-1.38-.56-2.632-1.464-3.536a1 1 0 1 0-1.414 1.414 2.987 2.987 0 0 1 .874 2.284Zm3.164 3.164 1.462 1.462A8.961 8.961 0 0 0 21 12a8.975 8.975 0 0 0-2.636-6.364A1 1 0 0 0 16.95 7.05 6.975 6.975 0 0 1 19 12a6.966 6.966 0 0 1-.84 3.326ZM8.917 6.083 12 9.166V5.414c0-.89-1.077-1.337-1.707-.707L8.917 6.083Z"/>
</svg>
